packages/axiom-materials/src/icon_svgs/4chan-mono.svg

<?xml version="1.0" encoding="UTF-8"?>
<svg width="16px" height="16px" viewBox="0 0 16 16" version="1.1" xmlns="http://www.w3.org/2000/svg" xmlns:xlink="http://www.w3.org/1999/xlink">
    <g id="Symbols/Social-Icons/Colour/4Chan" stroke="none" stroke-width="1" fill="none" fill-rule="evenodd">
        <g id="4Chan" fill="#000000">
            <path d="M5.77758226,8.57138037 C6.13544312,9.81151375 6.34162266,10.547936 6.39612088,10.780647 C6.50042239,11.2260214 6.58896936,11.6596339 6.65681272,12.0715792 C6.76630363,12.7364085 6.81800878,13.3187909 6.79786046,13.8046937 C6.76951214,14.4883499 6.60609246,15.0039818 6.19600159,15.3227694 C5.7049105,15.7045232 5.13764292,15.7094613 4.63410359,15.4056022 C4.32307654,15.217914 4.06563629,14.9457076 3.76291754,14.5424097 L3.76291754,14.5424097 L3.75671591,14.5341551 L3.74998291,14.5420428 C3.53877793,14.7843728 3.22884875,14.9423193 2.81725883,14.9895446 L2.81725883,14.9895446 L2.79693473,14.9917778 C2.27760497,15.0483585 1.77752987,14.7509666 1.44576356,14.2756224 C1.1262354,13.8178125 0.980296372,13.2234089 1.06111406,12.6038066 C1.25105877,11.1475638 2.59003246,9.82113451 5.08889933,8.84139477 L5.08889933,8.84139477 Z M11.6521105,9.34542206 C12.3461251,9.34425934 12.9477338,9.38744782 13.4386425,9.48698232 C14.1322646,9.6276181 14.6281332,9.87647755 14.8783607,10.3452582 L14.8783607,10.3452582 L14.8863424,10.3603364 C15.1652121,10.8938417 15.0816081,11.4400312 14.7149698,11.8786716 C14.4931678,12.1440323 14.2002898,12.3488414 13.7908147,12.5663185 L13.7908147,12.5663185 L13.7367399,12.5947629 L13.6914092,12.6179198 C13.9008011,12.8690313 14.0073475,13.1991467 13.9868574,13.6209753 L13.9868574,13.6209753 L13.9857059,13.6425032 C13.9534107,14.163264 13.5763892,14.605887 13.0525261,14.8532148 C12.5475546,15.0916234 11.937145,15.1361051 11.3398238,14.9528095 C9.93595693,14.5220151 8.85232046,12.9800009 8.30408452,10.3520054 L8.30408452,10.3520054 L8.15306197,9.62807149 C9.03645102,9.51857595 9.54272026,9.45789736 9.6718697,9.44603573 L9.6718697,9.44603573 L9.76215894,9.43789472 C10.4048176,9.38102249 11.0476526,9.34647921 11.6521105,9.34542206 Z M9.64350383,0.215127777 C10.1672608,-0.107184222 10.726558,-0.0557605456 11.192062,0.292084212 C11.4817186,0.508528114 11.7097318,0.804906042 11.965097,1.23192813 L11.965097,1.23192813 L11.9815383,1.25980214 L11.9914791,1.25053882 C12.2252616,1.034326 12.54788,0.91057079 12.9646731,0.906505675 L12.9646731,0.906505675 L12.9859472,0.906402259 C13.5078849,0.906402259 13.9725668,1.25609561 14.2512585,1.7643146 C14.519716,2.25387068 14.6012943,2.86045111 14.4549496,3.46778178 C14.1108063,4.89597634 12.6380213,6.07134065 10.0487645,6.77701924 L10.0487645,6.77701924 L9.33549976,6.97141311 L9.19412001,6.2457773 C9.09335438,5.65068519 9.03008607,5.2599854 9.00431507,5.07367793 C8.92769765,4.51978412 8.87004439,3.97543901 8.83910301,3.46197085 C8.79778162,2.77624795 8.80595989,2.17959499 8.8765039,1.68879707 C8.97602008,0.996430238 9.19436298,0.491522146 9.64350383,0.215127777 Z M1.7643146,0.792023665 C2.25387068,0.523566161 2.86045111,0.441987838 3.46778178,0.588332577 C4.89597634,0.932475846 6.07134065,2.40526092 6.77701924,4.99451768 L6.77701924,4.99451768 L6.97141311,5.70778243 C5.89256379,5.90280122 5.2599854,6.01319612 5.07367793,6.03896712 C4.51978412,6.11558454 3.97543901,6.1732378 3.46197085,6.20417918 C2.77624795,6.24550057 2.17959499,6.2373223 1.68879707,6.16677829 C0.996430238,6.06726211 0.491522146,5.84891921 0.215127777,5.39977836 C-0.107184222,4.87602136 -0.0557605456,4.31672422 0.292084212,3.85122014 C0.508528114,3.56156357 0.804906042,3.33355037 1.23192813,3.07818518 L1.23192813,3.07818518 L1.26075246,3.06115908 L1.25015683,3.04984185 C1.03421636,2.81633443 0.910567241,2.49445429 0.906505588,2.07856304 L0.906505588,2.07856304 L0.906402259,2.05733498 C0.906402259,1.5353973 1.25609561,1.07071534 1.7643146,0.792023665 Z" id="Combined-Shape"></path>
        </g>
    </g>
</svg>

<svg height="16" viewBox="0 0 16 16" width="16" xmlns="http://www.w3.org/2000/svg"><path d="m5.77758226 8.57138037c.35786086 1.24013338.5640404 1.97655563.61853862 2.20926663.10430151.4453744.19284848.8789869.26069184 1.2909322.10949091.6648293.16119606 1.2472117.14104774 1.7331145-.02834832.6836562-.191768 1.1992881-.60185887 1.5180757-.49109109.3817538-1.05835867.3866919-1.561898.0828328-.31102705-.1876882-.5684673-.4598946-.87118605-.8631925l-.00620163-.0082546-.006733.0078877c-.21120498.24233-.52113416.4002765-.93272408.4475018l-.0203241.0022332c-.51932976.0565807-1.01940486-.2408112-1.35117117-.7161554-.31952816-.4578099-.46546719-1.0522135-.3846495-1.6718158.18994471-1.4562428 1.5289184-2.78267209 4.02778527-3.76241183zm5.87452824.77404169c.6940146-.00116272 1.2956233.04202576 1.786532.14156026.6936221.14063578 1.1894907.38949523 1.4397182.85827588l.0079817.0150782c.2788697.5335053.1952657 1.0796948-.1713726 1.5183352-.221802.2653607-.51468.4701698-.9241551.6876469l-.0540748.0284444-.0453307.0231569c.2093919.2511115.3159383.5812269.2954482 1.0030555l-.0011515.0215279c-.0322952.5207608-.4093167.9633838-.9331798 1.2107116-.5049715.2384086-1.1153811.2828903-1.7127023.0995947-1.40386687-.4307944-2.48750334-1.9728086-3.03573928-4.6008041l-.15102255-.72393391c.88338905-.10949554 1.38965829-.17017413 1.51880773-.18203576l.09028924-.00814101c.64265866-.05687223 1.28549366-.09141551 1.88995156-.09247266zm-2.00860667-9.13029428c.52375697-.322312 1.08305417-.27088833 1.54855817.07695643.2896566.2164439.5176698.51282183.773035.93984392l.0164413.02787401.0099408-.00926332c.2337825-.21621282.5564009-.33996803.973194-.34403314l.0212741-.00010342c.5219377 0 .9866196.34969335 1.2653113.85791234.2684575.48955608.3500358 1.09613651.2036911 1.70346718-.3441433 1.42819456-1.8169283 2.60355887-4.4061851 3.30923746l-.71326474.19439387-.14137975-.72563581c-.10076563-.59509211-.16403394-.9857919-.18980494-1.17209937-.07661742-.55389381-.13427068-1.09823892-.16521206-1.61170708-.04132139-.6857229-.03314312-1.28237586.03740089-1.77317378.09951618-.69236683.31785908-1.19727492.76699993-1.47366929zm-7.87918923.57689589c.48955608-.26845751 1.09613651-.35003583 1.70346718-.20369109 1.42819456.34414327 2.60355887 1.81692834 3.30923746 4.4061851l.19439387.71326475c-1.07884932.19501879-1.71142771.30541369-1.89773518.33118469-.55389381.07661742-1.09823892.13427068-1.61170708.16521206-.6857229.04132139-1.28237586.03314312-1.77317378-.03740089-.69236683-.09951618-1.19727492-.31785908-1.47366929-.76699993-.322312-.523757-.27088833-1.08305414.07695643-1.54855822.2164439-.28965657.51282183-.51766977.93984392-.77303496l.02882433-.0170261-.01059563-.01131723c-.21594047-.23350742-.33958959-.55538756-.34365124-.97127881l-.00010333-.02122806c0-.52193768.34969335-.98661964.85791234-1.26531131z" fill-rule="evenodd"/></svg>
